X:1
T:J. H. Cornell
T:Haight
%%score { ( 1 2 ) | ( 3 4 ) }
L:1/8
M:4/4
K:E
V:1 treble 
V:2 treble 
V:3 bass 
V:4 bass 
V:1
 E2 G>G B2 z B | c3 c B2 G2 | B2 B2 c3 c | B4 z2 B2 | c3 d e2 G2 | A3 B c2 F2 | B3 G A2 F2 | E8 | %8
 A4 G4 |] %9
V:2
 E2 G>G B2 z B | A3 A G2 E2 | F2 D2 (G2 F)E | D4 z2 E2 | E3 F E2 E2 | E3 E E2 D2 | E3 E E2 D2 | %7
 B,8 | E4 E4 |] %9
V:3
 E,2 G,>G, B,2 z E | E3 E E2 B,2 | B,2 B,2 (B,2 ^A,)A, | B,4 z2 B,2 | A,3 A, G,2 B,2 | %5
 A,3 G, A,2 B,2 | B,3 C C2 A,2 | G,8 | C4 B,4 |] %9
V:4
 E,2 G,>G, B,2 z G, | A,3 A, E,2 E,2 | D,2 G,2 (E,2 F,)F, | B,,4 z2 G,2 | A,3 F, C,2 =D,2 | %5
 C,3 E, A,2 A,,2 | G,,3 C, A,,2 B,,2 | E,8 | A,,4 E,4 |] %9

